frontendd/public/icon.svg

<svg viewBox="0 0 64 64" xmlns="http://www.w3.org/2000/svg">
  <path d="M16.5 50.1c1.1-6.1 3.4-11 8.1-13.8-1.8 4.7-2.6 9.1-2.1 13.8l-6 0z" fill="#4CBB17"/>
  <path d="M47.5 50.1c-1.1-6.1-3.4-11-8.1-13.8 1.8 4.7 2.6 9.1 2.1 13.8l6 0z" fill="#4CBB17"/>
  <path d="M26.8 36.1c3.5-3.1 8.8-3.1 12.3 0l1.9 14.2c-2.3 2.3-5.3 2.3-7.6 0l-6.6-14.2z" fill="#FFC72C"/>
  <path d="M32.9 32.3c2.4-2.8 7.5-6.7 11.3-3.7l6.3 4.9c1.9 1.5 1.9 3.9 0 5.4l-3.3 2.6-14.3-9.2z" fill="#FFFACD"/>
  <path d="M43.9 23.3c7.1-1.4 14.6-0.3 19.1 5.6l-3.1 2.4c-3.1-4.2-8.3-4.8-13.1-3.8l-2.9-4.2z" fill="#BFC1C2"/>
  <path d="M51 28v8l6.5-4-6.5-4z" fill="#A4A4A4"/>
</svg>

<?xml version="1.0" encoding="UTF-8"?>
<svg width="64px" height="64px" viewBox="0 0 64 64" version="1.1" xmlns="http://www.w3.org/2000/svg">
    <path d="M16.5,50.1 C17.6,44 19.9,39.1 24.6,36.3 C22.8,41 22,45.4 22.5,50.1 L16.5,50.1 Z" fill="#4CBB17"></path>
    <path d="M47.5,50.1 C46.4,44 44.1,39.1 39.4,36.3 C41.2,41 42,45.4 42.5,50.1 L47.5,50.1 Z" fill="#4CBB17"></path>
    <path d="M26.8,36.1 C30.3,33 35.6,33 39.1,36.1 L41,50.3 C38.7,52.6 35.7,52.6 33.4,50.3 L26.8,36.1 Z" fill="#FFC72C"></path>
    <path d="M32.9,32.3 C35.3,29.5 40.4,25.6 44.2,28.6 L50.5,33.5 C52.4,35 52.4,37.4 50.5,38.9 L47.2,41.5 L32.9,32.3 Z" fill="#FFFACD"></path>
    <path d="M43.9,23.3 C51,21.9 58.5,23 63,28.9 L59.9,31.3 C56.8,27.1 51.6,26.5 46.8,27.5 L43.9,23.3 Z" fill="#BFC1C2"></path>
    <path d="M51,28 L51,36 L57.5,32 L51,28 Z" fill="#A4A4A4"></path>
</svg>
